X: 10953
M: 2/4
L: 1/16
K: D
(3(ABc) |\
d2A2f3e | d2A2f3e | dcde f2df | edcB A2(3(ABc) |\
d2A2f3e | d2A2f3e | dcBA A2Bc | d6 H|]
g2ge cAag | f2fe d2ba | g2gf efed | cedB ABAG |\


